X:4568
T:Navvy on the Line, The
O:england
R:reel
D:Bothy Band: 1975
M:C|
K:G
Bdge dBGB|AGAB AGEF|1 G2ge dBGB|AGAB A2GA:|2 ~g3d edBG|AGFA G2Gg||
|:g2BA GABd|edBA GABd|1 g2BA GABd|eBdB ABcd:|2 ~g3d edBG|AGFA G2GA||
"Variations of 1st part"
~g3e dBGB|AGAB AGEF|G2ge dBGB|AGAB AGEF|
G2ge dBGB|~A3B AGE2|~g3d edBG|AGFA G2Gg||


